img/icons/telegram.svg

<svg width="29" height="24" viewBox="0 0 29 24" fill="none" xmlns="http://www.w3.org/2000/svg">
<path fill-rule="evenodd" clip-rule="evenodd" d="M6.6562 14.4405C6.71734 14.4602 6.77906 14.4741 6.84072 14.4826C6.90797 14.6335 6.99485 14.8284 7.09622 15.0565C7.34359 15.613 7.67689 16.3659 8.02093 17.1511C8.72256 18.7526 9.43027 20.4035 9.58658 20.876C9.78008 21.4602 9.98461 21.8573 10.2079 22.1285C10.3233 22.2687 10.4569 22.3911 10.6131 22.4838C10.6918 22.5305 10.7748 22.5687 10.8616 22.5972C10.8654 22.5986 10.8692 22.5998 10.873 22.601C11.3201 22.762 11.7277 22.6949 11.9828 22.613C12.1194 22.569 12.2298 22.5161 12.3081 22.4732C12.3481 22.4512 12.3818 22.4308 12.4087 22.4135L12.415 22.4095L16.3632 20.0606L20.9236 23.3961C20.9909 23.4453 21.0643 23.4866 21.1421 23.519C21.69 23.747 22.2204 23.8265 22.7196 23.7615C23.2177 23.6966 23.6133 23.497 23.9078 23.2721C24.1961 23.0521 24.3916 22.8055 24.5134 22.6224C24.5756 22.5289 24.6222 22.4461 24.6551 22.3828C24.6717 22.351 24.685 22.3235 24.6951 22.3015L24.7084 22.2725L24.7133 22.261L24.7154 22.2562L24.7164 22.2539L24.7172 22.2518C24.7412 22.1946 24.7595 22.1355 24.7721 22.0751L28.9355 2.05039C28.9488 1.98636 28.9555 1.92121 28.9555 1.85592C28.9555 1.26951 28.7239 0.711905 28.1793 0.373541C27.7139 0.0843412 27.1953 0.0718937 26.8676 0.0956161C26.5141 0.121218 26.1877 0.204472 25.9685 0.270988C25.8545 0.305612 25.7589 0.33901 25.6901 0.364492C25.6554 0.377299 25.6269 0.388294 25.6058 0.396677L25.5899 0.403047L2.24136 9.14106L2.23835 9.14213C2.22347 9.14733 2.20436 9.15412 2.18166 9.16252C2.13645 9.17931 2.07586 9.2029 2.00511 9.23355C1.86711 9.29326 1.67352 9.38642 1.47486 9.51622C1.15748 9.72359 0.427577 10.2915 0.550483 11.2288C0.648536 11.9766 1.1855 12.4358 1.51266 12.6566C1.6923 12.7779 1.86297 12.8645 1.98725 12.9211C2.04491 12.9472 2.16463 12.9935 2.21657 13.0138L2.22968 13.0189L6.6562 14.4405ZM26.4071 2.2438L26.4038 2.24516C26.3922 2.24998 26.3805 2.25459 26.3687 2.25902L2.99175 11.0077C2.97954 11.0122 2.96724 11.0166 2.95487 11.0207L2.94186 11.0254C2.9269 11.031 2.90173 11.0407 2.87013 11.0543C2.8522 11.062 2.8335 11.0706 2.81443 11.0796C2.84064 11.0938 2.8657 11.1059 2.88798 11.116C2.90937 11.1257 2.92568 11.1324 2.93461 11.1359L7.32477 12.5459C7.40513 12.5717 7.48003 12.6059 7.54879 12.6472L22.0448 4.55156L22.0584 4.54391C22.069 4.53795 22.0828 4.5303 22.0994 4.52133C22.1324 4.50354 22.1778 4.47986 22.2317 4.45367C22.3323 4.40483 22.4932 4.33231 22.6746 4.27884C22.8009 4.24162 23.1731 4.13675 23.5756 4.25991C23.824 4.33591 24.0812 4.49931 24.2484 4.77612C24.3315 4.91364 24.3758 5.05179 24.3972 5.17825C24.4542 5.37747 24.4452 5.57419 24.4007 5.74402C24.3046 6.10986 24.0351 6.39523 23.7899 6.6135C23.5799 6.80063 20.8623 9.30059 18.1814 11.7685C16.8443 12.9991 15.521 14.2178 14.5319 15.1286L13.8822 15.727L22.0852 21.7266C22.2732 21.7908 22.3844 21.7876 22.436 21.7808C22.4973 21.7728 22.5474 21.7503 22.5987 21.7113C22.656 21.6675 22.7061 21.6084 22.7436 21.552L22.7451 21.5497L26.7831 2.12806C26.7231 2.1418 26.6625 2.15817 26.6041 2.17589C26.5379 2.19598 26.4834 2.21512 26.4472 2.22848C26.4293 2.23511 26.4165 2.24013 26.4095 2.2429L26.4071 2.2438ZM14.5869 18.7614L12.9504 17.5644L12.5538 19.9709L14.5869 18.7614ZM11.4491 15.1892L13.0765 13.6903C14.0657 12.7794 15.3892 11.5607 16.7263 10.3298L18.0848 9.07949L8.97655 14.1662L9.02542 14.2762C9.27366 14.8347 9.60846 15.5907 9.95432 16.3803C10.2129 16.9705 10.4834 17.5921 10.7297 18.1676L11.1251 15.7681C11.1632 15.5368 11.2817 15.3366 11.4491 15.1892Z" fill="black"/>
</svg>

<svg xmlns="http://www.w3.org/2000/svg" width="29" height="24" fill="none">
    <path fill="#000" fill-rule="evenodd"
          d="M6.656 14.44c.061.02.123.034.185.043l.255.573c.248.557.58 1.31.925 2.095.702 1.602 1.41 3.253 1.566 3.725.193.584.398.981.62 1.252.116.14.25.263.406.356.079.046.162.085.249.113l.011.004c.447.161.855.094 1.11.012a1.878 1.878 0 0 0 .426-.2l.006-.003 3.948-2.35 4.56 3.336c.068.05.141.09.22.123.547.228 1.077.308 1.577.243a2.47 2.47 0 0 0 1.188-.49 2.701 2.701 0 0 0 .787-.97l.013-.03.005-.011.002-.005.001-.002.001-.002a.966.966 0 0 0 .055-.177L28.936 2.05a.956.956 0 0 0 .02-.194c0-.586-.232-1.144-.777-1.482-.465-.29-.984-.302-1.311-.278-.354.025-.68.108-.9.175a4.955 4.955 0 0 0-.362.126l-.016.006L2.24 9.141l-.003.001a3.283 3.283 0 0 0-.233.092c-.138.06-.331.152-.53.282-.318.208-1.047.775-.925 1.713.099.748.635 1.207.963 1.428.18.12.35.207.474.264.058.026.178.072.23.093l.013.005 4.426 1.421ZM26.407 2.245l-.003.001-.035.014-23.377 8.749a1.184 1.184 0 0 1-.037.013l-.013.004a1.606 1.606 0 0 0-.128.055 1.16 1.16 0 0 0 .12.056l4.39 1.41c.081.026.156.06.225.101l14.496-8.095.013-.008a2.8 2.8 0 0 1 .174-.09c.1-.05.261-.122.443-.175.126-.037.498-.142.9-.02.249.077.506.24.673.517.083.138.128.276.15.402.056.2.047.396.003.566-.096.366-.366.651-.611.87-.21.187-2.928 2.687-5.609 5.154l-3.65 3.36-.649.599 8.203 6c.188.064.3.06.351.054a.328.328 0 0 0 .163-.07.673.673 0 0 0 .145-.159l.001-.002 4.038-19.422a2.688 2.688 0 0 0-.373.115h-.003ZM14.587 18.76l-1.637-1.197-.396 2.407 2.033-1.21Zm-3.138-3.572 1.627-1.499 3.65-3.36 1.359-1.25-9.108 5.086.048.11c.249.559.583 1.315.93 2.104.258.59.528 1.212.775 1.788l.395-2.4a.983.983 0 0 1 .324-.579Z"
          clip-rule="evenodd"/>
</svg>
